X: 1115
T: Amorous Lover, The
R: reel
M: 4/4
K: Amixolydian
|:A2cd cAcd|AccA B2 BG|A2cd cAcd|eAAG A2AG:|
|:A2ge ga zf|g2 ge BdG2|A2ge ga zf|gedB A2AG:|

